X:1
T:Volge a l'anima mia
T:Volge a l'anima mia
T:Giovanni Ghizzolo
C:Giovanni Ghizzolo
%%score 1 { 2 | 3 }
L:1/8
Q:1/4=120
M:4/4
K:F
V:1 treble nm="Soprano" snm="S"
V:2 treble nm="MusicXML Part"
V:3 bass 
V:1
"^Source: Madrigali et Arie---Libro primo---Venetia---A.Raverij---1609.\nEditor: André Vierendeels (07/05/09)\nContinuo: André Vierendeels." z2 d2 GFGA | %1
w: Vol- ge- * * *|
 B/A/B/G/ A/B/c/B/ c/B/c/A/ B/A/B/c/ | d/^F/G/F/ G/F/G/A/ B4 | A4 c4- | c2 cc d4- | dBBB B4 | %6
w: ||a l'a-|* n- ma mia|_ so- a- va- men-|
 A4 z2 f_e | d2 cB c3 B | B2 B2 z2 A2- | A2 ^FF G4 | z2 c4 AA | B4 B4 | z2 cA d4- | d2 _ee d4 | %14
w: te, quel suo|ca- ro'e lu- cen- te|sguar- do tut-|* to bel- ta|tut- to de-|si- re|ver- so me|_ scin- til- lan-|
"^forte" dc/B/ A/G/^F"^piano" dc/B/ A/G/F | G4 z2 A2 | G3 F F2 F2 | B6 AG | A3 A B2 c2 | d8- | %20
w: |do e|pa- te'a di- re|damm' il tuo|cor che non al|tron-|
 d8- | d2 G2 A4 | G4 z2 F2 | F3 F G2 G2 | A/G/A/B/ c/A/B/c/ d/c/d/e/ f/e/f/d/ | %25
w: |* de'i vi-|vo, e|men- tr'il cor se'n|vo- * * * * * * * * * * * * * * *|
"^-natural" e/c/d/e/ f/F/G/A/ B/A/B/G/ A/B/c/A/ | =B2 c4 B2 | c4 z2 c2- | c2 BB A4 | Addc B2 A2 | %30
w: ||la o-|* ve l'in- vi-|ta quel- la bel- ta'in- fi-|
 G4 G4 | z2 Bc d4- | d2 c>B B4 | c6 BA | A2 GF GGGA | B8 | A8 | z d_ec d2 d2 | z f"^b"ed c4- | %39
w: ni- ta|sos- pi- ran-|* do gri- dai|mi- se- ro'e|pri- vo del cor che mi da|vi-|ta|mi ris- po- s'el- la|in un sos- pir|
 c2 B2 c4 | c4 d4- | d2 F2 G2 AB | A8 | G8 |] %44
w: _ d'a- mo-|re io|_ che son' il tuo|co-|re.|
V:2
 [DGB]8 | [DGB]8 | [^FA]4 [DG]4 | F4 E4 | A4 [GB]4- | [GB]4 [CG]4 | [D^F]4 G4 | A2 G2 B2 A2 | %8
 [DGB]4 [^FA]4- | [FA]4 [DG]4 | [EGc]4 [FAc]4 | [DFB]8 | [FAc]4 G2 F2 | F2 A4 [GB]2 | [^FA]8 | %15
 [DG=B]4 [FAc]4 | [EGc]4 [FAc]4 | [DGB]4 [FB]2 [Gc]2 | [FAc]4 D2 C2 | D2 E2 A2 G2 | [FA]4 [GB]4 | %21
 [FA]2 [Gc]2 G2 ^F2 | [D=B]4 [DF]4 | [DFB]4 [Ec]4 | [FAc]4 [DFB]4 | [EGc]2 [DF]2 [DG]2 [FA]2 | %26
 [DG]8 | [EGc]8 | [FA]8 | [DF]4 [DG]2 [FA]2 | [EG]8 | [DGB]8 | [FAc]4 [DFB]4 | [FAc]8 | %34
 [FA]4 [EG]4 | D8 | [^FA]8 | [DF]2 [CG]2 [DB]2 [DF]2 | [FAc]8 | G2 F2 [FA]4 | [FA]4 F2 G2 | %41
 [FA]4 E4 | [FA]2 [CEA]2 [DG]2 ^F2 | [DG=B]8 |] %44
V:3
 G,8 | G,,8 | D,4 G,,4 | D,4 A,,4 | F,,2 F,2 B,,2 G,,2 | _E,6 D,C, | D,4 z2 B,,C, | D,2 _E,G, F,4 | %8
 B,,4 D,4- | D,4 =B,,2 B,,2 | C,4 F,4 | B,,4 B,,4 | F,,4 G,,2 A,,2 | B,,2 C,2 D,2 G,,2 | D,8 | %15
 G,,4 F,,4 | C,4 F,,4 | G,,4 D,2 E,2 | F,2 F,,2 G,,2 A,,2 | B,,2 C,2 D,2 E,2 | %20
 F,D,E,F, G,G,,B,,C, | D,2 _E,2 C,2 D,2 | G,,4 B,,4 | B,,2 D,2 C,2 C,2 | F,,4 B,,4 | %25
 C,2 D,2 G,,2 F,,2 | G,,8 | C,8 | F,4 F,,4 | F,B,,B,,A,, G,,2 F,,2 | C,4 C,2 E,F, | G,8 | %32
 F,2 F,2 B,,4 | F,2 E,D, C,4 | D,4 C,4 | z G,,G,,A,, B,,A,,B,,C, | D,8 | z B,,_E,F, B,,B,A,G, | %38
 F,4 z F,"^b"E,D, | C,2 D,2 F,4 | %40
 F,,4 B,,2"^Notes: original keys: Ut 1st, Fa 4rth\n            editorial accidentals above the staff" C,2 | %41
 D,4 C,4- | C,2 A,,2 D,4 | G,,8 |] %44

